packages/devextreme-scss/images/icons/fluent/imagethumbnail.svg

<svg width="20" height="20" viewBox="0 0 20 20" fill="none" xmlns="http://www.w3.org/2000/svg">
<path fill-rule="evenodd" clip-rule="evenodd" d="M9.48529 9C10.3137 9 10.9853 8.32843 10.9853 7.5C10.9853 6.67157 10.3137 6 9.48529 6C8.65687 6 7.98529 6.67157 7.98529 7.5C7.98529 8.32843 8.65687 9 9.48529 9ZM8.98529 7.5C8.98529 7.22386 9.20915 7 9.48529 7C9.76144 7 9.98529 7.22386 9.98529 7.5C9.98529 7.77614 9.76144 8 9.48529 8C9.20915 8 8.98529 7.77614 8.98529 7.5Z" fill="black"/>
<path fill-rule="evenodd" clip-rule="evenodd" d="M6 3C4.34315 3 3 4.34315 3 6V14C3 15.6569 4.34315 17 6 17H14C15.6569 17 17 15.6569 17 14V6C17 4.34315 15.6569 3 14 3H6ZM4 6C4 4.89543 4.89543 4 6 4H14C15.1046 4 16 4.89543 16 6V12.1005L13.1924 9.29289C12.8019 8.90237 12.1687 8.90237 11.7782 9.29289L9.48528 11.5858L8.19239 10.2929C7.80186 9.90237 7.1687 9.90237 6.77817 10.2929L4 13.0711V6ZM12.7959 10.1464L16 13.3505V14C16 14.3726 15.8981 14.7215 15.7206 15.0201C15.5478 15.3109 15.3035 15.5542 15.0118 15.7256C14.7149 15.9 14.3692 16 14 16H6.23529L12.0888 10.1464C12.2841 9.95118 12.6007 9.95118 12.7959 10.1464ZM8.86028 12.2108L5.22625 15.8448C5.14397 15.8103 5.06449 15.7704 4.98824 15.7256C4.69654 15.5542 4.45215 15.3109 4.27937 15.0201C4.13781 14.7819 4.04432 14.5117 4.01229 14.223L7.08883 11.1464C7.2841 10.9512 7.60068 10.9512 7.79594 11.1464L8.86028 12.2108Z" fill="black"/>
</svg>

<!-- Generated by IcoMoon.io -->
<svg version="1.1" xmlns="http://www.w3.org/2000/svg" width="20" height="20" viewBox="0 0 20 20">
<path d="M9.485 9c0.828 0 1.5-0.672 1.5-1.5s-0.672-1.5-1.5-1.5c-0.828 0-1.5 0.672-1.5 1.5s0.672 1.5 1.5 1.5zM8.985 7.5c0-0.276 0.224-0.5 0.5-0.5s0.5 0.224 0.5 0.5c0 0.276-0.224 0.5-0.5 0.5s-0.5-0.224-0.5-0.5z"></path>
<path d="M6 3c-1.657 0-3 1.343-3 3v8c0 1.657 1.343 3 3 3h8c1.657 0 3-1.343 3-3v-8c0-1.657-1.343-3-3-3h-8zM4 6c0-1.105 0.895-2 2-2h8c1.105 0 2 0.895 2 2v6.101l-2.808-2.808c-0.391-0.391-1.024-0.391-1.414 0l-2.293 2.293-1.293-1.293c-0.391-0.391-1.024-0.391-1.414 0l-2.778 2.778v-7.071zM12.796 10.146l3.204 3.204v0.649c0 0.373-0.102 0.722-0.279 1.020-0.173 0.291-0.417 0.534-0.709 0.706-0.297 0.174-0.643 0.274-1.012 0.274h-7.765l5.854-5.854c0.195-0.195 0.512-0.195 0.707 0zM8.86 12.211l-3.634 3.634c-0.082-0.034-0.162-0.074-0.238-0.119-0.292-0.171-0.536-0.415-0.709-0.706-0.142-0.238-0.235-0.508-0.267-0.797l3.077-3.077c0.195-0.195 0.512-0.195 0.707 0l1.064 1.064z"></path>
</svg>
